react/assets/forus-webshop/resources/_webshop-common/assets/img/file-icon-doc.svg

<svg xmlns="http://www.w3.org/2000/svg" width="24" height="24" fill="none" viewBox="0 0 24 24"><g opacity=".5"><path fill="#E2E5E7" d="M6 0C5.175 0 4.5 0.675 4.5 1.5V22.5C4.5 23.325 5.175 24 6 24H21C21.825 24 22.5 23.325 22.5 22.5V6L16.5 0H6Z"/><path fill="#B0B7BD" d="M18 6H22.5L16.5 0V4.5C16.5 5.325 17.175 6 18 6Z"/><path fill="#CAD1D8" d="M22.5 10.5L18 6H22.5V10.5Z"/><path fill="#50BEE8" d="M19.5 19.5C19.5 19.9125 19.1625 20.25 18.75 20.25H2.25C1.8375 20.25 1.5 19.9125 1.5 19.5V12C1.5 11.5875 1.8375 11.25 2.25 11.25H18.75C19.1625 11.25 19.5 11.5875 19.5 12V19.5Z"/><path fill="#fff" d="M4.33978 18C4.14178 18 3.92578 17.8913 3.92578 17.628V14.2223C3.92578 14.0063 4.14178 13.8503 4.33978 13.8503H5.71303C8.45353 13.8503 8.39278 18 5.76628 18H4.33978ZM4.71778 14.5815V17.268H5.71303C7.33228 17.268 7.40353 14.5815 5.71303 14.5815H4.71778Z"/><path fill="#fff" d="M10.688 18.06C9.57876 18.108 8.42676 17.37 8.42676 15.9008C8.42676 14.4255 9.57801 13.7003 10.688 13.7003C11.7373 13.7535 12.8345 14.4795 12.8345 15.9008C12.8345 17.3228 11.7373 18.06 10.688 18.06ZM10.622 14.4803C9.95001 14.4803 9.21876 14.9543 9.21876 15.9015C9.21876 16.8435 9.95076 17.3235 10.622 17.3235C11.312 17.3235 12.0493 16.8435 12.0493 15.9015C12.0493 14.9535 11.312 14.4803 10.622 14.4803Z"/><path fill="#fff" d="M13.54 15.8947C13.54 14.7375 14.266 13.7422 15.6453 13.7422C16.1673 13.7422 16.5813 13.8982 17.0186 14.2762C17.1806 14.4255 17.1986 14.6895 17.0366 14.8575C16.8746 15.0007 16.6286 14.9835 16.4846 14.8395C16.2393 14.5815 15.9873 14.5102 15.6453 14.5102C14.722 14.5102 14.2788 15.1642 14.2788 15.8955C14.2788 16.6395 14.716 17.3227 15.6453 17.3227C15.9873 17.3227 16.3053 17.184 16.5813 16.9387C16.7666 16.7947 17.0246 16.866 17.1326 17.0107C17.2286 17.1427 17.2758 17.3647 17.0666 17.574C16.6466 17.9647 16.1433 18.0427 15.6445 18.0427C14.194 18.0427 13.54 17.052 13.54 15.8947Z"/><path fill="#CAD1D8" d="M18.75 20.25H4.5V21H18.75C19.1625 21 19.5 20.6625 19.5 20.25V19.5C19.5 19.9125 19.1625 20.25 18.75 20.25Z"/></g></svg>

<?xml version="1.0" encoding="UTF-8" standalone="no"?><svg width="100%" height="100%" viewBox="0 0 24 24" version="1.1" xmlns="http://www.w3.org/2000/svg" xmlns:xlink="http://www.w3.org/1999/xlink" xml:space="preserve" style="fill-rule:evenodd;clip-rule:evenodd;stroke-linejoin:round;stroke-miterlimit:2;"><path d="M6,0c-0.825,0 -1.5,0.675 -1.5,1.5l0,21c0,0.825 0.675,1.5 1.5,1.5l15,0c0.825,0 1.5,-0.675 1.5,-1.5l0,-16.5l-6,-6l-10.5,0Z" style="fill:#f5f5f5;fill-rule:nonzero;"/><path d="M18,6l4.5,0l-6,-6l0,4.5c0,0.825 0.675,1.5 1.5,1.5Z" style="fill:#cdced2;fill-rule:nonzero;"/><path d="M22.5,10.5l-4.5,-4.5l4.5,0l0,4.5Z" style="fill:#cdced2;fill-opacity:0.29;fill-rule:nonzero;"/><path d="M18.75,20.25l-14.25,0l0,0.75l14.25,0c0.413,0 0.75,-0.337 0.75,-0.75l0,-0.75c0,0.413 -0.337,0.75 -0.75,0.75Z" style="fill:#cdced2;fill-opacity:0.29;fill-rule:nonzero;"/><path d="M19.5,19.5c0,0.413 -0.337,0.75 -0.75,0.75l-16.5,0c-0.413,0 -0.75,-0.337 -0.75,-0.75l0,-7.5c0,-0.412 0.337,-0.75 0.75,-0.75l16.5,0c0.413,0 0.75,0.338 0.75,0.75l0,7.5Z" style="fill:#282b39;fill-rule:nonzero;"/><path d="M4.34,18c-0.198,0 -0.414,-0.109 -0.414,-0.372l-0,-3.406c-0,-0.216 0.216,-0.372 0.414,-0.372l1.373,0c2.741,0 2.68,4.15 0.053,4.15l-1.426,0Zm0.378,-3.419l-0,2.687l0.995,0c1.619,0 1.691,-2.687 0,-2.687l-0.995,0.001Z" style="fill:#fff;fill-rule:nonzero;"/><path d="M10.688,18.06c-1.109,0.048 -2.261,-0.69 -2.261,-2.159c-0,-1.475 1.151,-2.201 2.261,-2.201c1.049,0.054 2.147,0.78 2.147,2.201c-0,1.422 -1.098,2.159 -2.147,2.159Zm-0.066,-3.58c-0.672,0 -1.403,0.474 -1.403,1.422c-0,0.941 0.732,1.422 1.403,1.422c0.69,-0 1.427,-0.48 1.427,-1.422c0,-0.948 -0.737,-1.422 -1.427,-1.422Z" style="fill:#fff;fill-rule:nonzero;"/><path d="M13.54,15.895c-0,-1.157 0.726,-2.153 2.105,-2.153c0.522,0 0.936,0.156 1.374,0.534c0.162,0.149 0.18,0.414 0.018,0.582c-0.162,0.143 -0.408,0.125 -0.552,-0.019c-0.246,-0.258 -0.498,-0.329 -0.84,-0.329c-0.923,0 -1.366,0.654 -1.366,1.386c-0,0.744 0.437,1.427 1.366,1.427c0.342,-0 0.66,-0.139 0.936,-0.384c0.186,-0.144 0.444,-0.073 0.552,0.072c0.096,0.132 0.143,0.354 -0.066,0.563c-0.42,0.391 -0.924,0.469 -1.423,0.469c-1.45,-0 -2.104,-0.991 -2.104,-2.148Z" style="fill:#fff;fill-rule:nonzero;"/></svg>
